X: 23393
T: Lente In Laren
R: barndance
M: 4/4
K: Fmajor
"capo3:"G|:"D"AFAB "D/F#"Gc2G|"Bm7"EFcF "Bm7/A"EFEC|"Gmaj7"DEFG AB,CD|EFGA "A"GEcB|
"D"A2GF "D/F#"Gc2G|"Bm7"EFcF "Bm7/A"EFEC|"Gmaj7"DEFG AB,CD|"A"EC F2- "D"FE A,C:|
"Bm"DdDc DBDA|"Asus4"G2GF AGFE|"D/F#"EFC2- CFGA|AG F/G/A "A"G3F|
"Bm"DdDc DBDA|"Asus4"G2GF A2GF|"D/F#"EFCD EFGE|1 "A"EC F2- "D"FE A,C:|2 "A"EC F2- "D"FE FG||

